X:1
T:Gamekeepers Lie Sleeping
M:3/4
L:1/8
K:G
 D2| GA B3 G/2G/2| AB c3 F| GG B3 A| A G- G2 BB| cde-d B2| dBG-F D3/2 D/2|\
 GB d3 F| A G- G2||
